Logo.svg

<svg width="100" height="100" viewBox="0 0 100 100" fill="none" xmlns="http://www.w3.org/2000/svg">
<path d="M49.9 91.3C72.7646 91.3 91.3 72.7646 91.3 49.9C91.3 27.0354 72.7646 8.5 49.9 8.5C27.0354 8.5 8.5 27.0354 8.5 49.9C8.5 72.7646 27.0354 91.3 49.9 91.3Z" fill="#67C6B0"/>
<path d="M91.8 30.2C106.1 60.1 85.9 95.9 52.2 97C11.4 98.1 -11.7 49.1 15.1 18.3C37.4 -6.9 77.7 0.200001 91.8 30.2ZM91.6 30.3C74 -6.2 21.3 -2.7 6.90001 34.5C-2.29999 58.1 10.4 85 34.5 92.8C72.3 105.2 108.4 66.9 91.6 30.3Z" fill="#67C6B0"/>
<path d="M29.1 44.3C29.7 44.9 30 45.5 30 46.2V48.1C30 49.1 29.2 49.9 28.2 49.9H25.5C24.5 49.9 23.7 49.1 23.7 48.1V46.3H25.5V48.1H28.2V46L24.5 42.4C23.9 41.8 23.6 41.2 23.6 40.5V39.1C23.6 38.1 24.4 37.3 25.4 37.3H28.1C29.1 37.3 29.9 38.1 29.9 39.1V40.9H28.1V39.1H25.4V40.7L29.1 44.3Z" fill="#343434"/>
<path d="M38.2 49.9H36.4V44.1H33.7V49.9H31.9V37.3H33.7V42.4H36.4V37.3H38.2V49.9Z" fill="#343434"/>
<path d="M46.9999 49.9H45.0999L44.6999 48.1H41.5999L41.1999 49.9H39.2999L41.9999 37.3H44.2999L46.9999 49.9ZM44.2999 46.3L43.0999 40.4L41.8999 46.3H44.2999Z" fill="#343434"/>
<path d="M53.5 49.9H48.1V37.3H49.9V48.2H53.5V49.9Z" fill="#343434"/>
<path d="M60.3 49.9H54.9V37.3H56.7V48.2H60.3V49.9Z" fill="#343434"/>
<path d="M66.1999 49.9H63.5C62.5 49.9 61.7 49.1 61.7 48.1V39.1C61.7 38.1 62.5 37.3 63.5 37.3H66.1999C67.1999 37.3 68 38.1 68 39.1V48.1C68 49.1 67.1999 49.9 66.1999 49.9ZM66.1999 48.1V39.1H63.5V48.1H66.1999Z" fill="#343434"/>
<path d="M74.4 49.9H71.7C70.7 49.9 69.9 49.1 69.9 48.1V39.1C69.9 38.1 70.7 37.3 71.7 37.3H74.4C75.4 37.3 76.2 38.1 76.2 39.1V48.1C76.2 49.1 75.4 49.9 74.4 49.9ZM74.4 48.1V39.1H71.7V48.1H74.4Z" fill="#343434"/>
<path d="M36.0999 63.2C36.0999 64.2 35.2999 65 34.2999 65H30.2V52.3H34.2999C35.2999 52.3 36.0999 53.1 36.0999 54.1V63.2ZM34.7999 54.1C34.7999 53.8 34.5999 53.6 34.2999 53.6H31.6V63.6H34.2999C34.5999 63.6 34.7999 63.4 34.7999 63.1V54.1Z" fill="#343434"/>
<path d="M43.1 65H38.1V52.3H43.1V53.7H39.5V57.6H42.2V59H39.5V63.7H43.1V65Z" fill="#343434"/>
<path d="M49.2 61.4C49.2 61.1 49.1 60.9 49 60.8L45.3 57.1C44.9 56.7 44.7 56.1 44.7 55.5V54.1C44.7 53.1 45.5 52.3 46.5 52.3H48.8C49.8 52.3 50.6 53.1 50.6 54.1V56H49.2V54.2C49.2 53.9 49 53.7 48.7 53.7H46.4C46.1 53.7 45.9 53.9 45.9 54.2V55.6C45.9 55.8 46 56 46.1 56.2L49.8 59.9C50.2 60.3 50.4 60.9 50.4 61.5V63.3C50.4 64.3 49.6 65.1 48.6 65.1H46.3C45.3 65.1 44.5 64.3 44.5 63.3V61.5H46V63.3C46 63.6 46.2 63.8 46.5 63.8H48.8C49.1 63.8 49.3 63.6 49.3 63.3V61.4H49.2Z" fill="#343434"/>
<path d="M53.9 65H52.5V52.3H53.9V65Z" fill="#343434"/>
<path d="M61.6999 63.2C61.6999 64.2 60.8999 65 59.8999 65H57.5999C56.5999 65 55.7999 64.2 55.7999 63.2V54.2C55.7999 53.2 56.5999 52.4 57.5999 52.4H59.8999C60.8999 52.4 61.6999 53.2 61.6999 54.2V56H60.2999V54.2C60.2999 53.9 60.0999 53.7 59.7999 53.7H57.4999C57.1999 53.7 56.9999 53.9 56.9999 54.2V63.2C56.9999 63.5 57.1999 63.7 57.4999 63.7H59.7999C60.0999 63.7 60.2999 63.5 60.2999 63.2V59.9H58.6999V58.5H61.6999V63.2Z" fill="#343434"/>
<path d="M69.5999 65H68.5L65.0999 55.6V65H63.7V52.3H65.1999L68.1999 60.8V52.3H69.5999V65Z" fill="#343434"/>
</svg>

<svg viewBox="0 0 100 100" xmlns="http://www.w3.org/2000/svg"><circle cx="49.9" cy="49.9" fill="#67c6b0" r="41.4"/><path d="m91.8 30.2c14.3 29.9-5.9 65.7-39.6 66.8-40.8 1.1-63.9-47.9-37.1-78.7 22.3-25.2 62.6-18.1 76.7 11.9zm-.2.1c-17.6-36.5-70.3-33-84.7 4.2-9.2 23.6 3.5 50.5 27.6 58.3 37.8 12.4 73.9-25.9 57.1-62.5z" fill="#67c6b0"/><g fill="#343434"><path d="m29.1 44.3c.6.6.9 1.2.9 1.9v1.9c0 1-.8 1.8-1.8 1.8h-2.7c-1 0-1.8-.8-1.8-1.8v-1.8h1.8v1.8h2.7v-2.1l-3.7-3.6c-.6-.6-.9-1.2-.9-1.9v-1.4c0-1 .8-1.8 1.8-1.8h2.7c1 0 1.8.8 1.8 1.8v1.8h-1.8v-1.8h-2.7v1.6z"/><path d="m38.2 49.9h-1.8v-5.8h-2.7v5.8h-1.8v-12.6h1.8v5.1h2.7v-5.1h1.8z"/><path d="m47 49.9h-1.9l-.4-1.8h-3.1l-.4 1.8h-1.9l2.7-12.6h2.3zm-2.7-3.6-1.2-5.9-1.2 5.9z"/><path d="m53.5 49.9h-5.4v-12.6h1.8v10.9h3.6z"/><path d="m60.3 49.9h-5.4v-12.6h1.8v10.9h3.6z"/><path d="m66.2 49.9h-2.7c-1 0-1.8-.8-1.8-1.8v-9c0-1 .8-1.8 1.8-1.8h2.7c1 0 1.8.8 1.8 1.8v9c0 1-.8 1.8-1.8 1.8zm0-1.8v-9h-2.7v9z"/><path d="m74.4 49.9h-2.7c-1 0-1.8-.8-1.8-1.8v-9c0-1 .8-1.8 1.8-1.8h2.7c1 0 1.8.8 1.8 1.8v9c0 1-.8 1.8-1.8 1.8zm0-1.8v-9h-2.7v9z"/><path d="m36.1 63.2c0 1-.8 1.8-1.8 1.8h-4.1v-12.7h4.1c1 0 1.8.8 1.8 1.8zm-1.3-9.1c0-.3-.2-.5-.5-.5h-2.7v10h2.7c.3 0 .5-.2.5-.5z"/><path d="m43.1 65h-5v-12.7h5v1.4h-3.6v3.9h2.7v1.4h-2.7v4.7h3.6z"/><path d="m49.2 61.4c0-.3-.1-.5-.2-.6l-3.7-3.7c-.4-.4-.6-1-.6-1.6v-1.4c0-1 .8-1.8 1.8-1.8h2.3c1 0 1.8.8 1.8 1.8v1.9h-1.4v-1.8c0-.3-.2-.5-.5-.5h-2.3c-.3 0-.5.2-.5.5v1.4c0 .2.1.4.2.6l3.7 3.7c.4.4.6 1 .6 1.6v1.8c0 1-.8 1.8-1.8 1.8h-2.3c-1 0-1.8-.8-1.8-1.8v-1.8h1.5v1.8c0 .3.2.5.5.5h2.3c.3 0 .5-.2.5-.5v-1.9z"/><path d="m53.9 65h-1.4v-12.7h1.4z"/><path d="m61.7 63.2c0 1-.8 1.8-1.8 1.8h-2.3c-1 0-1.8-.8-1.8-1.8v-9c0-1 .8-1.8 1.8-1.8h2.3c1 0 1.8.8 1.8 1.8v1.8h-1.4v-1.8c0-.3-.2-.5-.5-.5h-2.3c-.3 0-.5.2-.5.5v9c0 .3.2.5.5.5h2.3c.3 0 .5-.2.5-.5v-3.3h-1.6v-1.4h3z"/><path d="m69.6 65h-1.1l-3.4-9.4v9.4h-1.4v-12.7h1.5l3 8.5v-8.5h1.4z"/></g></svg>
